assets/icons/yes.svg

<svg width="24" height="25" viewBox="0 0 24 25" fill="none" xmlns="http://www.w3.org/2000/svg">
<g clip-path="url(#clip0_1_204)">
<mask id="mask0_1_204" style="mask-type:luminance" maskUnits="userSpaceOnUse" x="0" y="0" width="24" height="25">
<path d="M24 12.6664C24 6.03896 18.6274 0.666382 12 0.666382C5.37258 0.666382 0 6.03896 0 12.6664C0 19.2938 5.37258 24.6664 12 24.6664C18.6274 24.6664 24 19.2938 24 12.6664Z" fill="white"/>
</mask>
<g mask="url(#mask0_1_204)">
<path fill-rule="evenodd" clip-rule="evenodd" d="M12 24.6664C18.6274 24.6664 24 19.2938 24 12.6664C24 10.0515 23.1636 7.63196 21.7438 5.66068C16.5893 11.443 11.6682 20.3221 11.6124 20.4233C11.572 20.4967 11.5135 20.5578 11.443 20.6004C11.3725 20.6431 11.2924 20.6658 11.2107 20.6663L11.2076 20.6664C11.1265 20.6664 11.0466 20.6444 10.9762 20.6028C10.9058 20.5611 10.8471 20.5011 10.8059 20.4287C9.25828 17.7046 5.13204 11.9042 5.09058 11.8459C5.0243 11.7528 4.99266 11.6382 5.00144 11.523C5.01022 11.4078 5.05885 11.2997 5.13842 11.2184L6.40722 9.923C6.48471 9.84391 6.58658 9.79536 6.69513 9.78582C6.80368 9.77628 6.91203 9.80635 7.00134 9.8708L11.1107 12.8352C13.8606 9.19226 16.4148 6.6754 18.0952 5.19026C18.818 4.55155 19.4406 4.047 19.9366 3.66562C17.8213 1.79898 15.0429 0.666382 12 0.666382C5.37258 0.666382 0 6.03897 0 12.6664C0 19.2938 5.37258 24.6664 12 24.6664Z" fill="white"/>
</g>
</g>
<defs>
<clipPath id="clip0_1_204">
<rect width="24" height="24" fill="white" transform="translate(0 0.666382)"/>
</clipPath>
</defs>
</svg>

<svg xmlns="http://www.w3.org/2000/svg" width="24" height="25" fill="none" viewBox="0 0 24 25"><g clip-path="url(#a)"><mask id="b" width="24" height="25" x="0" y="0" maskUnits="userSpaceOnUse" style="mask-type:luminance"><path fill="#fff" d="M24 12.666c0-6.627-5.373-12-12-12s-12 5.373-12 12c0 6.628 5.373 12 12 12s12-5.372 12-12"/></mask><g mask="url(#b)"><path fill="#fff" fill-rule="evenodd" d="M12 24.666c6.627 0 12-5.372 12-12 0-2.614-.836-5.034-2.256-7.005-5.155 5.782-10.076 14.661-10.132 14.762a.5.5 0 0 1-.169.177.45.45 0 0 1-.232.066h-.003a.46.46 0 0 1-.402-.237c-1.548-2.724-5.674-8.525-5.715-8.583a.49.49 0 0 1 .047-.628l1.27-1.295a.455.455 0 0 1 .594-.052l4.109 2.964c2.75-3.643 5.304-6.16 6.984-7.645a35 35 0 0 1 1.842-1.524 11.96 11.96 0 0 0-7.937-3c-6.627 0-12 5.373-12 12 0 6.628 5.373 12 12 12" clip-rule="evenodd"/></g></g><defs><clipPath id="a"><path fill="#fff" d="M0 .666h24v24H0z"/></clipPath></defs></svg>
